assets/img/social/vb.svg

<svg width="30" height="30" viewBox="0 0 30 30" fill="none" xmlns="http://www.w3.org/2000/svg">
<path d="M24.1124 12.6337C24.1424 9.01874 21.0636 5.70499 17.2499 5.24624C17.1675 5.23596 17.0854 5.22346 17.0036 5.20874C16.8119 5.17204 16.6175 5.15114 16.4224 5.14624C15.6399 5.14624 15.4311 5.69624 15.3761 6.02249C15.3224 6.34124 15.3736 6.60999 15.5274 6.81874C15.7861 7.16999 16.2424 7.23249 16.6086 7.28249C16.7149 7.29749 16.8161 7.31124 16.9011 7.32999C20.3286 8.09624 21.4824 9.29999 22.0461 12.6987C22.0599 12.7812 22.0661 12.8837 22.0736 12.9925C22.0986 13.3987 22.1486 14.2437 23.0574 14.2437C23.1324 14.2437 23.2149 14.2375 23.2999 14.225C24.1449 14.0962 24.1186 13.3237 24.1061 12.9525C24.1024 12.8475 24.0986 12.7487 24.1086 12.6825C24.1106 12.6659 24.1115 12.6492 24.1111 12.6325L24.1124 12.6337Z" fill="#8ABC36"/>
<path d="M16.2 3.92C16.3025 3.9275 16.3975 3.935 16.4775 3.94625C22.1063 4.8125 24.695 7.47875 25.4113 13.1512C25.4238 13.2475 25.4263 13.365 25.4275 13.4887C25.435 13.9325 25.45 14.855 26.44 14.8737H26.47C26.7813 14.8737 27.0275 14.78 27.205 14.595C27.5125 14.2737 27.4925 13.795 27.4738 13.41C27.47 13.315 27.4663 13.2262 27.4663 13.1475C27.5388 7.3475 22.5163 2.08625 16.7213 1.89125C16.6963 1.89125 16.6738 1.89125 16.6513 1.895C16.6285 1.89788 16.6055 1.89913 16.5825 1.89875C16.5238 1.89875 16.4538 1.89375 16.3775 1.88875C16.2875 1.8825 16.1838 1.875 16.0775 1.875C15.155 1.875 14.98 2.53125 14.9575 2.9225C14.9063 3.82625 15.78 3.89 16.2 3.92ZM25.14 20.4825C25.0192 20.3907 24.8997 20.2973 24.7813 20.2025C24.1663 19.7075 23.5125 19.2525 22.8813 18.8112L22.4875 18.5362C21.6775 17.9675 20.95 17.6912 20.2625 17.6912C19.335 17.6912 18.5275 18.2037 17.86 19.2125C17.565 19.66 17.2063 19.8775 16.765 19.8775C16.4585 19.8668 16.1578 19.7914 15.8825 19.6562C13.27 18.4712 11.4025 16.6537 10.335 14.255C9.81876 13.095 9.98626 12.3375 10.8938 11.72C11.41 11.37 12.3688 10.7187 12.3025 9.47C12.225 8.05375 9.09876 3.79 7.78126 3.30625C7.21804 3.1008 6.60066 3.09903 6.03626 3.30125C4.52251 3.81 3.43751 4.705 2.89376 5.88625C2.36876 7.02875 2.39376 8.37 2.96126 9.765C4.60501 13.7987 6.91501 17.3162 9.82876 20.2187C12.68 23.06 16.185 25.3862 20.245 27.135C20.6113 27.2925 20.995 27.3787 21.2763 27.4412C21.3713 27.4625 21.4538 27.4812 21.5138 27.4975C21.5468 27.5064 21.5808 27.511 21.615 27.5112H21.6475C23.5575 27.5112 25.8513 25.7662 26.555 23.7775C27.1725 22.035 26.045 21.1737 25.14 20.4825ZM17.045 8.52875C16.7188 8.53625 16.0375 8.55375 15.7988 9.24625C15.6863 9.57125 15.7 9.85125 15.8388 10.0825C16.0413 10.42 16.43 10.525 16.7825 10.5825C18.0638 10.7875 18.7225 11.495 18.8538 12.8112C18.915 13.4237 19.3288 13.8525 19.8575 13.8525C19.8976 13.8524 19.9377 13.8499 19.9775 13.845C20.615 13.77 20.9238 13.3012 20.8963 12.4525C20.9063 11.5675 20.4438 10.5625 19.655 9.7625C18.865 8.96 17.9125 8.5075 17.045 8.52875Z" fill="#8ABC36"/>
</svg>

<svg width="30" height="30" fill="none" xmlns="http://www.w3.org/2000/svg"><path d="M24.112 12.634c.03-3.615-3.048-6.929-6.862-7.388a4.62 4.62 0 01-.246-.037 3.567 3.567 0 00-.582-.063c-.782 0-.99.55-1.046.876-.054.32-.002.588.151.797.26.351.715.413 1.082.463.106.015.207.03.292.048 3.428.766 4.581 1.97 5.145 5.369.014.082.02.185.028.293.025.407.075 1.252.983 1.252.075 0 .158-.006.243-.019.845-.129.819-.901.806-1.272a1.667 1.667 0 01.003-.27.348.348 0 00.002-.05h.001z" fill="#8ABC36"/><path d="M16.2 3.92c.102.008.198.015.277.026 5.63.866 8.218 3.533 8.934 9.205.013.097.015.214.016.338.008.443.023 1.366 1.013 1.385h.03c.311 0 .558-.094.735-.279.308-.321.288-.8.269-1.185-.004-.095-.008-.184-.008-.262.073-5.8-4.95-11.062-10.745-11.257-.025 0-.047 0-.07.004a.485.485 0 01-.069.004c-.058 0-.128-.005-.204-.01-.09-.006-.194-.014-.3-.014-.923 0-1.098.656-1.12 1.047-.052.904.822.968 1.242.998zm8.94 16.563a31.52 31.52 0 01-.359-.28c-.615-.495-1.268-.95-1.9-1.392l-.393-.275c-.81-.569-1.538-.845-2.226-.845-.927 0-1.735.513-2.402 1.521-.295.448-.654.666-1.095.666a2.174 2.174 0 01-.883-.222c-2.612-1.185-4.48-3.002-5.547-5.401-.516-1.16-.349-1.918.559-2.535.516-.35 1.475-1.001 1.409-2.25-.078-1.416-3.204-5.68-4.522-6.164a2.566 2.566 0 00-1.745-.005c-1.513.509-2.598 1.404-3.142 2.585-.525 1.143-.5 2.484.067 3.879 1.644 4.034 3.954 7.551 6.868 10.454 2.851 2.841 6.356 5.167 10.416 6.916.366.157.75.244 1.031.306.095.021.178.04.238.056a.397.397 0 00.101.014h.033c1.91 0 4.203-1.745 4.907-3.733.617-1.743-.51-2.604-1.415-3.295zM17.045 8.529c-.326.007-1.008.025-1.246.717-.113.325-.099.605.04.836.202.338.591.443.943.5 1.282.205 1.94.913 2.072 2.23.061.612.475 1.04 1.004 1.04.04 0 .08-.002.12-.007.637-.075.946-.544.918-1.393.01-.884-.452-1.89-1.241-2.69-.79-.802-1.742-1.255-2.61-1.233z" fill="#8ABC36"/></svg>
